layouts/partials/icons/bluesky.svg

<svg fill="#FFFFFF" viewBox="0 0 600 530" width="32" height="32">
  <path d="m135.72 44.03c66.496 49.921 138.02 151.14 164.28 205.46 26.262-54.316 97.782-155.54 164.28-205.46 47.98-36.021 125.72-63.892 125.72 24.795 0 17.712-10.155 148.79-16.111 170.07-20.703 73.984-96.144 92.854-163.25 81.433 117.3 19.964 147.14 86.092 82.697 152.22-122.39 125.59-175.91-31.511-189.63-71.766-2.514-7.3797-3.6904-10.832-3.7077-7.8964-0.0174-2.9357-1.1937 0.51669-3.7077 7.8964-13.714 40.255-67.233 197.36-189.63 71.766-64.444-66.128-34.605-132.26 82.697-152.22-67.108 11.421-142.55-7.4491-163.25-81.433-5.9562-21.282-16.111-152.36-16.111-170.07 0-88.687 77.742-60.816 125.72-24.795z"/>
</svg>

<svg width="100%" height="100%" viewBox="0 0 64 64" version="1.1" xmlns="http://www.w3.org/2000/svg" xmlns:xlink="http://www.w3.org/1999/xlink" xml:space="preserve" xmlns:serif="http://www.serif.com/" style="fill-rule:evenodd;clip-rule:evenodd;stroke-linejoin:round;stroke-miterlimit:2;">
    <g transform="matrix(1,0,0,1,-154,-1332.498869)">
        <g transform="matrix(2.666667,0,0,2.666667,154,1332.498869)">
            <g transform="matrix(0.032796,0,0,0.032796,2.161227,3.309191)">
                <path d="M135.72,44.03C202.216,93.951 273.74,195.17 300,249.49C326.262,195.174 397.782,93.95 464.28,44.03C512.26,8.009 590,-19.862 590,68.825C590,86.537 579.845,217.615 573.889,238.895C553.186,312.879 477.745,331.749 410.639,320.328C527.939,340.292 557.779,406.42 493.336,472.548C370.946,598.138 317.426,441.037 303.706,400.782C301.192,393.402 300.016,389.95 299.998,392.886C299.981,389.95 298.805,393.402 296.291,400.782C282.577,441.037 229.058,598.142 106.661,472.548C42.217,406.42 72.056,340.288 189.358,320.328C122.25,331.749 46.808,312.879 26.108,238.895C20.151,217.613 9.997,86.535 9.997,68.825C9.997,-19.862 87.739,8.009 135.717,44.03L135.72,44.03Z" style="fill:white;fill-rule:nonzero;"/>
            </g>
            <rect x="0" y="0" width="24" height="24" style="fill:none;"/>
        </g>
    </g>
</svg>
